X: 691
T: Joe Cooley's Reel
B: jims roots
M:4/4
L:1/8
R: Reel
Q: 1/4=100
K:Edor
V:1 
F|"Em"EBBA B2 EB|B2 AB dBAG|"D"(3FED AD BDAD|(3FED AD BAGF|
"Em"EBBA B2 EB|B2 AB defg|"D"afec dBAF|DEFD "Em"E3 :|
g/f/|"Em"eB (3BBB eBgf|eB (3BBB gedB|"D"A2 FA DAFA|BAFA defg|
"C"eB (3BBB eBgf|"Am"eB (3BBB defg|"D"afec dBAF|DEFD "Em"E2 :|
% abcbook-tune_id 6298c25de45451eaffcb96d1


% abcbook-boost 0
% abcbook-tablature 
% abcbook-transpose 
% abcbook-lastupdated 1654178399223
% abcbook-soundfonts 
% abcbook-repeats 1


